brandFactory_export/2.Regular/Dinero_Pagar_Cobro_Saldo_2Regular.svg

<?xml version="1.0" encoding="UTF-8"?>
<svg width="24px" height="24px" viewBox="0 0 24 24" version="1.1" xmlns="http://www.w3.org/2000/svg" xmlns:xlink="http://www.w3.org/1999/xlink">
    <title>2.Regular/Dinero_Pagar_Cobro_Saldo_2Regular</title>
    <g id="Symbols" stroke="none" stroke-width="1" fill="none" fill-rule="evenodd">
        <g id="2.Regular/Dinero_Pagar_Cobro_Saldo_2Regular" fill="#5CB615" fill-rule="nonzero">
            <path d="M11.8151261,1.7408297e-13 C15.5630252,1.7408297e-13 18.4840336,0.981512605 20.4907563,2.91428571 C22.5747899,4.9210084 23.6302521,7.91596639 23.6302521,11.8151261 C23.6302521,15.7142857 22.5747899,18.7058824 20.4907563,20.7159664 C18.4840336,22.6487395 15.5630252,23.6302521 11.8151261,23.6302521 C8.06722689,23.6302521 5.14621849,22.6487395 3.1394958,20.7159664 C1.05546218,18.7058824 -2.80746093e-10,15.7109244 -2.80746093e-10,11.8151261 C-2.80746093e-10,7.91932773 1.05546218,4.92436975 3.1394958,2.91428571 C5.14621849,0.981512605 8.06722689,1.7408297e-13 11.8151261,1.7408297e-13 Z M11.8151261,1.34453782 C8.42689076,1.34453782 5.82184874,2.19831933 4.07394958,3.88235294 C2.26218487,5.62689076 1.34453781,8.29579832 1.34453781,11.8151261 C1.34453781,15.3344538 2.26218487,18 4.07394958,19.7478992 C5.82184874,21.4319328 8.42689076,22.2857143 11.8151261,22.2857143 C15.2033613,22.2857143 17.8084034,21.4319328 19.5563025,19.7478992 C21.3680672,18.0033613 22.2857143,15.3344538 22.2857143,11.8151261 C22.2857143,8.29579832 21.3680672,5.6302521 19.5563025,3.88235294 C17.8084034,2.19831933 15.2033613,1.34453782 11.8151261,1.34453782 Z M11.8117647,3.95294118 C12.1815126,3.95294118 12.4840336,4.25546218 12.4840336,4.62521008 L12.4852278,5.53101342 C13.4078313,5.62332505 14.2629455,5.89466717 14.9445378,6.31596639 C15.2571429,6.50756303 15.4285714,6.77983193 15.4285714,7.08235294 C15.4285714,7.52268908 15.0722689,7.8789916 14.6319328,7.8789916 C14.4403361,7.8789916 14.2689076,7.80504202 14.1411765,7.74117647 L14.1310924,7.73445378 C13.5719677,7.42926484 13.0354482,7.23871699 12.485723,7.1505002 L12.485,10.977 L12.7160209,11.0104984 C13.7793884,11.1829832 14.6064426,11.5411765 15.1764706,12.0773109 C15.7983193,12.6621849 16.1176471,13.4554622 16.1176471,14.4336134 C16.1176471,15.5294118 15.7176471,16.4537815 14.9613445,17.1092437 C14.3458984,17.6444143 13.5003953,17.9793502 12.487578,18.0937025 L12.487395,19.0084034 C12.487395,19.3781513 12.1882353,19.6806723 11.8151261,19.6806723 C11.4453782,19.6806723 11.1428571,19.3781513 11.1428571,19.0084034 L11.1426225,18.1143689 C9.99792046,18.0148272 8.84544348,17.602076 7.9092437,16.9478992 C7.64033613,16.7596639 7.5092437,16.5176471 7.5092437,16.2117647 C7.5092437,15.7613445 7.88235294,15.394958 8.34285714,15.394958 C8.53781513,15.4016807 8.72605042,15.4621849 8.88739496,15.5697479 C9.6348427,16.0671783 10.3903618,16.3769503 11.1414449,16.4912471 L11.1407357,12.4695665 C8.38654315,12.0187932 7.79495798,10.4000666 7.79495798,9.09915966 C7.79495798,7.10932951 9.08739671,5.75877012 11.1389866,5.53022048 L11.1394958,4.62521008 C11.1394958,4.25546218 11.4420168,3.95294118 11.8117647,3.95294118 Z M12.4880153,12.6602296 L12.4876998,16.490321 C13.7264734,16.2979788 14.4672269,15.5711962 14.4672269,14.5008403 C14.4672269,13.7742333 14.2190594,12.9996848 12.4880153,12.6602296 Z M10.0168067,7.64033613 C9.64369748,7.97310924 9.44537815,8.44705882 9.44537815,9.01176471 C9.44537815,9.54285714 9.60336134,9.92605042 9.94621849,10.2218487 C10.2182612,10.4563684 10.6179302,10.6385285 11.140659,10.766046 L11.1399557,7.1403058 C10.6821586,7.21718529 10.299837,7.3858467 10.0168067,7.64033613 Z" id="Dinero_Pagar_Cobro_Saldo_2Regular"></path>
        </g>
    </g>
</svg>

<svg width="24" height="24" viewBox="0 0 24 24" xmlns="http://www.w3.org/2000/svg"><path d="M11.815 0c3.748 0 6.669.982 8.676 2.914 2.084 2.007 3.14 5.002 3.14 8.901 0 3.9-1.056 6.89-3.14 8.901-2.007 1.933-4.928 2.914-8.676 2.914s-6.669-.981-8.676-2.914C1.055 18.706 0 15.711 0 11.816c0-3.897 1.055-6.892 3.14-8.902C5.145.982 8.066 0 11.814 0zm0 1.345c-3.388 0-5.993.853-7.741 2.537-1.812 1.745-2.73 4.414-2.73 7.933 0 3.52.918 6.185 2.73 7.933 1.748 1.684 4.353 2.538 7.741 2.538s5.993-.854 7.741-2.538c1.812-1.745 2.73-4.414 2.73-7.933 0-3.52-.918-6.185-2.73-7.933-1.748-1.684-4.353-2.537-7.74-2.537zm-.003 2.608c.37 0 .672.302.672.672l.001.906c.923.092 1.778.364 2.46.785.312.192.484.464.484.766 0 .44-.357.797-.797.797a1.11 1.11 0 01-.49-.138l-.01-.007a5.078 5.078 0 00-1.646-.583l-.001 3.826.231.033c1.063.173 1.89.531 2.46 1.067.622.585.942 1.378.942 2.357 0 1.095-.4 2.02-1.157 2.675-.615.535-1.46.87-2.473.985v.914a.672.672 0 11-1.345 0v-.894a6.759 6.759 0 01-3.234-1.166c-.269-.188-.4-.43-.4-.736 0-.45.373-.817.834-.817.195.007.383.067.544.175.748.497 1.503.807 2.254.921V12.47c-2.754-.451-3.346-2.07-3.346-3.37 0-1.99 1.292-3.341 3.344-3.57v-.905c0-.37.303-.672.673-.672zm.676 8.707v3.83c1.238-.192 1.98-.919 1.98-1.99 0-.726-.249-1.5-1.98-1.84zm-2.471-5.02c-.373.333-.572.807-.572 1.372 0 .53.158.914.501 1.21.272.234.672.417 1.195.544L11.14 7.14c-.458.077-.84.246-1.123.5z" fill="#5CB615" fill-rule="nonzero"/></svg>
